X: 160908
T: Paddy Taylor's
S: "First Collection of Traditional Irish Music" (M.Mulvihill)
Z: B.Black
L: 1/8
M: 6/8
R: jig
K: G
A|B3 BGE|GBd edB|ABA DFA|DFA BAG|
B3 BGD|GBd edB|ABA DFA|BGF G2 :|
K: D
e|fef def|gfg efg|fAA AFA|BAF D2 d|
fef def|gfg efg|fed cBA|dfe d2 :|
